X: 32
M: 2/4
L: 1/16
K: A
"A"c>BA>c "C#/A7"e2c>A | "D"d>cd>f "E7"a2g>f |\
"A"e>cA>c "F#m"e>ca>e | "Bm"c2B2 B2"E7"A>B |
"A"c>BA>c "C#/A7"e2c>A | "D"d>cd>f "E7"a2g>f |\
"A"e>fg>a "E7"e>cd>B |1 "A"c2A2 A2"E7"A>B :|2 "A"c2A2 A2"E7"c>d ||
|:\
"A"e>^de>f "C#/A7"e>cA>c | "D"d>cd>f "E7"a2g>f |\
"A"e>^de>f "C#/A7"e>cA>B | "Bm"c2B2 B2"E7"c>d |
"A"e>^de>f "C#/A7"e>cA>c | "D"d>cd>f "E7"a2g>f |\
"A"e>fg>a "A"e>c"E7"d>B |1 "A"c2A2 A2"E7"c>d :|2 "A"c2A2 A2"E7"A>B ||
|:\
"A"c>Bc>d "C#/A7"e2c>A | "D"d>cd>f "E7"a2g>f |\
"A"e>^de>f "C#/A7"e>cA>B | "Bm"c2B2 B2"E7"A>B |
"A"c>Bc>d "C#/A7"e2c>A | "D"d>cd>f "E7"a2g>f |\
"A"e>fg>a "A"e>c"E7"d>B |1 "A"c2A2 A2"E7"A>B :|2 "A"c2A2 A2"E7"c>d ||
|:\
"A"e>cA>c "C#/A7"e>cA>c | "D"d>ef>g "E7"a2g>f |\
"A"e>cA>c "C#/A7"e<ca>e | "Bm"c2B2 B2"E7"c>d |
"A"e>cA>c "C#/A7"e>cA>c | "D"d>ef>g "E7"a2g>f |\
"A"e>fg>a "A"e<c"E7"d>B |1 "A"c2A2 A2"E7"c>d :|2 "A"c2A2 A4 |]
concert party which went round various venues in the Strathearn area. It was with this group that I
started to play regularly in public.


